icons/copilot-16.svg

<svg width="16" height="16" viewBox="0 0 16 16" fill="none" xmlns="http://www.w3.org/2000/svg">
<path d="M6.25 9C6.66421 9 7 9.33579 7 9.75V11.25C7 11.6642 6.66421 12 6.25 12C5.83579 12 5.5 11.6642 5.5 11.25V9.75C5.5 9.33579 5.83579 9 6.25 9Z" fill="black"/>
<path d="M10.5 9.75C10.5 9.33579 10.1642 9 9.75 9C9.33579 9 9 9.33579 9 9.75V11.25C9 11.6642 9.33579 12 9.75 12C10.1642 12 10.5 11.6642 10.5 11.25V9.75Z" fill="black"/>
<path fill-rule="evenodd" clip-rule="evenodd" d="M7.86079 1.76951C7.91028 1.82253 7.95663 1.8773 8 1.93369C8.04337 1.8773 8.08972 1.82253 8.13921 1.76951C8.82116 1.03885 9.87702 0.870609 11.0828 1.00459C12.3131 1.14128 13.2283 1.53235 13.8072 2.26517C14.3725 2.98069 14.5 3.87928 14.5 4.75C14.5 5.32203 14.447 5.89713 14.2459 6.40507L14.4135 7.24322L14.4798 7.27639C15.4115 7.74222 16 8.69445 16 9.73607L16 11C16 11.2396 15.9143 11.4383 15.844 11.5671C15.7691 11.7043 15.6751 11.8284 15.5851 11.9334C15.4049 12.1436 15.181 12.3463 14.9801 12.5137C14.7751 12.6845 14.5728 12.8361 14.4235 12.9439C14.3483 12.9982 14.2853 13.0423 14.2406 13.0732C14.2182 13.0887 14.2003 13.1009 14.1876 13.1095L14.1726 13.1196L14.1668 13.1236L14.139 13.1425C14.1156 13.1581 14.0827 13.1799 14.0408 13.2067C13.9568 13.2605 13.8363 13.3351 13.6826 13.4235C13.3756 13.6001 12.9344 13.8331 12.3867 14.0654C11.2956 14.5283 9.75604 15 8 15C6.24396 15 4.70442 14.5283 3.61334 14.0654C3.06559 13.8331 2.62435 13.6001 2.31739 13.4235C2.16373 13.3351 2.0432 13.2605 1.95925 13.2067C1.91725 13.1799 1.88437 13.1581 1.86101 13.1425L1.83316 13.1236L1.82736 13.1196L1.81237 13.1095C1.79971 13.1009 1.7818 13.0887 1.75941 13.0732C1.71466 13.0423 1.65169 12.9982 1.57651 12.9439C1.42716 12.8361 1.2249 12.6845 1.01986 12.5137C0.819 12.3463 0.595113 12.1436 0.414932 11.9334C0.3249 11.8284 0.230849 11.7043 0.156031 11.5671C0.0857453 11.4383 0 11.2396 1.90735e-06 11L0 9.73607C0 8.69445 0.588507 7.74222 1.52017 7.27639L1.5865 7.24322L1.75413 6.40506C1.55295 5.89712 1.5 5.32203 1.5 4.75C1.5 3.87928 1.62745 2.98069 2.19275 2.26517C2.77172 1.53235 3.68694 1.14128 4.91718 1.00459C6.12298 0.870609 7.17884 1.03885 7.86079 1.76951ZM3.0231 7.70875L3 7.82426V12.0853C3.02086 12.0976 3.04268 12.1103 3.06543 12.1234C3.32878 12.2749 3.71567 12.4794 4.19916 12.6846C5.17058 13.0967 6.50604 13.5 8 13.5C9.49396 13.5 10.8294 13.0967 11.8008 12.6846C12.2843 12.4794 12.6712 12.2749 12.9346 12.1234C12.9573 12.1103 12.9791 12.0976 13 12.0853V7.82426L12.9769 7.70875C12.4867 7.91839 11.9022 8 11.25 8C10.1037 8 9.19051 7.67247 8.54033 7.00872C8.3213 6.78512 8.14352 6.53483 8 6.26594C7.85648 6.53483 7.6787 6.78512 7.45967 7.00872C6.80949 7.67247 5.89633 8 4.75 8C4.09776 8 3.51325 7.91839 3.0231 7.70875ZM6.76421 2.79299C6.57116 2.58615 6.12702 2.37939 5.08282 2.49541C4.06306 2.60872 3.60328 2.89947 3.36975 3.19506C3.12255 3.50794 3 3.98435 3 4.75C3 5.54231 3.12905 5.92077 3.3082 6.12041C3.47045 6.30122 3.82768 6.5 4.75 6.5C5.60367 6.5 6.08903 6.26439 6.38811 5.95907C6.70349 5.63711 6.91507 5.13277 7.00579 4.40697C7.12274 3.47136 6.96805 3.01139 6.76421 2.79299ZM9.23579 2.79299C9.42884 2.58615 9.87298 2.37939 10.9172 2.49541C11.9369 2.60872 12.3967 2.89947 12.6303 3.19506C12.8775 3.50794 13 3.98435 13 4.75C13 5.54231 12.871 5.92077 12.6918 6.12041C12.5295 6.30122 12.1723 6.5 11.25 6.5C10.3963 6.5 9.91097 6.26439 9.61189 5.95907C9.29651 5.63711 9.08493 5.13277 8.99421 4.40697C8.87726 3.47136 9.03195 3.01139 9.23579 2.79299Z" fill="black"/>
</svg>

<svg xmlns="http://www.w3.org/2000/svg" width="16" height="16" viewBox="0 0 16 16"><path d="M6.25 9a.75.75 0 01.75.75v1.5a.75.75 0 01-1.5 0v-1.5A.75.75 0 016.25 9zm4.25.75a.75.75 0 00-1.5 0v1.5a.75.75 0 001.5 0v-1.5z"/><path fill-rule="evenodd" d="M7.86 1.77c.05.053.097.107.14.164.043-.057.09-.111.14-.164.681-.731 1.737-.9 2.943-.765 1.23.136 2.145.527 2.724 1.26.566.716.693 1.614.693 2.485 0 .572-.053 1.147-.254 1.655l.168.838.066.033A2.75 2.75 0 0116 9.736V11c0 .24-.086.438-.156.567a2.173 2.173 0 01-.259.366c-.18.21-.404.413-.605.58a10.373 10.373 0 01-.792.597l-.015.01-.006.004-.028.018a8.832 8.832 0 01-.456.281c-.307.177-.749.41-1.296.642C11.296 14.528 9.756 15 8 15c-1.756 0-3.296-.472-4.387-.935a12.06 12.06 0 01-1.296-.641 8.815 8.815 0 01-.456-.281l-.028-.02-.006-.003-.015-.01a7.077 7.077 0 01-.235-.166c-.15-.108-.352-.26-.557-.43a5.19 5.19 0 01-.605-.58 2.167 2.167 0 01-.259-.367A1.19 1.19 0 010 11V9.736a2.75 2.75 0 011.52-2.46l.067-.033.167-.838C1.553 5.897 1.5 5.322 1.5 4.75c0-.87.127-1.77.693-2.485.579-.733 1.494-1.124 2.724-1.26 1.206-.134 2.262.034 2.944.765zM3.024 7.709L3 7.824v4.261c.02.013.043.025.065.038.264.152.65.356 1.134.562.972.412 2.307.815 3.801.815 1.494 0 2.83-.403 3.8-.815a10.6 10.6 0 001.2-.6v-4.26l-.023-.116c-.49.21-1.075.291-1.727.291-1.146 0-2.06-.328-2.71-.991A3.223 3.223 0 018 6.266c-.144.269-.321.52-.54.743C6.81 7.672 5.896 8 4.75 8c-.652 0-1.237-.082-1.727-.291zm3.741-4.916c-.193-.207-.637-.414-1.681-.298-1.02.114-1.48.404-1.713.7-.247.313-.37.79-.37 1.555 0 .792.129 1.17.308 1.37.162.181.52.38 1.442.38.854 0 1.339-.236 1.638-.54.315-.323.527-.827.618-1.553.117-.936-.038-1.396-.242-1.614zm2.472 0c.193-.207.637-.414 1.681-.298 1.02.114 1.48.404 1.713.7.247.313.37.79.37 1.555 0 .792-.129 1.17-.308 1.37-.162.181-.52.38-1.442.38-.854 0-1.339-.236-1.638-.54-.315-.323-.527-.827-.618-1.553-.117-.936.038-1.396.242-1.614z"/></svg>
